svg/line/save.svg

<svg xmlns="http://www.w3.org/2000/svg" viewBox="0 0 24 24"><path d="m20.71 9.29-6-6a1 1 0 0 0-.32-.21A1.09 1.09 0 0 0 14 3H6a3 3 0 0 0-3 3v12a3 3 0 0 0 3 3h12a3 3 0 0 0 3-3v-8a1 1 0 0 0-.29-.71ZM9 5h4v2H9Zm6 14H9v-3a1 1 0 0 1 1-1h4a1 1 0 0 1 1 1Zm4-1a1 1 0 0 1-1 1h-1v-3a3 3 0 0 0-3-3h-4a3 3 0 0 0-3 3v3H6a1 1 0 0 1-1-1V6a1 1 0 0 1 1-1h1v3a1 1 0 0 0 1 1h6a1 1 0 0 0 1-1V6.41l4 4Z"/></svg>

<svg xmlns="http://www.w3.org/2000/svg" data-name="Layer 1" viewBox="0 0 24 24"><path d="M20.71,9.29l-6-6a1,1,0,0,0-.32-.21A1.09,1.09,0,0,0,14,3H6A3,3,0,0,0,3,6V18a3,3,0,0,0,3,3H18a3,3,0,0,0,3-3V10A1,1,0,0,0,20.71,9.29ZM9,5h4V7H9Zm6,14H9V16a1,1,0,0,1,1-1h4a1,1,0,0,1,1,1Zm4-1a1,1,0,0,1-1,1H17V16a3,3,0,0,0-3-3H10a3,3,0,0,0-3,3v3H6a1,1,0,0,1-1-1V6A1,1,0,0,1,6,5H7V8A1,1,0,0,0,8,9h6a1,1,0,0,0,1-1V6.41l4,4Z"/></svg>
